X:116
T:The holly bush
R:Reel
C:Finbarr Dwyer
O:Ireland
D:Session tape - Milltown Malbay 1983- Connie Connel, Cork (fiddle)
D:BBC recording of Feakle Session 1987: Noel Hill & Tony Linnane
D:Joe McHugh & Barry Carroll: The Long Finger
S:My arrangement from various sources
Z:Transcription, arrangement, chords:Mike Long
M:C|
L:1/8
K:G
"D"A2FA DFAG|FAde fded|"C"cG~G2 EG~G2|"C"cedB "(G)"cAGB|\
"D"A2FA DFAG|FAde fded |
"C"cG~G2 cGBd|"C"cAGE "G"DEFG:|\
|:"D"Ad{e}d^c defg| adde dcAB|"C"c2{d}cB cdeg|
aged cAGc|\
"D"Ad{e}d^c defg|adde dcAB|"C"c2{d}cB cAGc|[1 "G"AEGE "D"~D3G:|[2 "C"AEGE "G"DEFG|]
